core/assets/icons/internet_tv.outline.svg

<svg width="24" height="24" viewBox="0 0 24 24" xmlns="http://www.w3.org/2000/svg"><g id="internet-TV=outline" clip-path="url(#clip0_427_6502)"><g id="internet&amp;TV"><path id="Vector" d="M20.5001 20.9999C20.7634 20.9999 21.0209 20.8933 21.2072 20.7071C21.3934 20.5209 21.5001 20.2633 21.5001 20V18.3958L19.1704 20.9999H20.5001Z"/><path id="Vector_2" d="M4.5 19.0001V7.00007H19.5V9.26624C20.1888 9.45173 20.8568 9.7016 21.5 10.0114V6.00013C21.5 5.73676 21.3933 5.47919 21.2071 5.29298C21.0209 5.10682 20.7633 5.00013 20.5 5.00013H14.9142L17.2071 2.70722L15.7929 1.29297L12.0857 5.00013H11.9142L8.20709 1.29298L6.79291 2.70722L9.08582 5.00013H3.5C3.23669 5.00013 2.97913 5.10676 2.79291 5.29298C2.60669 5.4792 2.5 5.73676 2.5 6.00013V20.0001C2.5 20.2634 2.60669 20.521 2.79291 20.7072C2.97913 20.8934 3.23669 21.0001 3.5 21.0001H13.8296L12.0405 19.0001H4.5Z"/><path id="Vector_3" d="M16.5002 18.5C15.8706 18.5002 15.3158 18.7968 14.9492 19.2516L16.5002 20.9853L18.0511 19.2516C17.6846 18.7968 17.1298 18.5002 16.5002 18.5Z"/><path id="Vector_4" d="M16.5 14.6797C14.8925 14.68 13.4376 15.3315 12.3845 16.3848L13.7271 17.8857C13.7529 17.8582 13.7723 17.8253 13.799 17.7986C14.4934 17.1057 15.442 16.6802 16.5 16.6796C17.558 16.6802 18.5067 17.1057 19.2011 17.7986C19.2277 17.8253 19.2471 17.8582 19.2729 17.8857L20.6155 16.3848C19.5624 15.3315 18.1075 14.68 16.5 14.6797Z"/><path id="Vector_5" d="M21.8276 15.0299L23.1595 13.5411C21.4285 11.8842 19.086 10.8607 16.5001 10.8604C13.9141 10.8607 11.5716 11.8842 9.84058 13.5411L11.1725 15.0299C12.5518 13.6877 14.4235 12.8608 16.5001 12.8603C18.5767 12.8608 20.4484 13.6877 21.8276 15.0299Z"/></g></g><defs><clipPath id="clip0_427_6502"><rect width="24" height="24"/></clipPath></defs></svg>

<svg xmlns="http://www.w3.org/2000/svg" width="24" height="24" fill="none"><g fill="#191C22" clip-path="url(#a)"><path d="M20.5 21c.263 0 .52-.107.707-.293.186-.186.293-.444.293-.707v-1.604L19.17 21h1.33ZM4.5 19V7h15v2.266c.689.186 1.357.436 2 .745v-4.01c0-.264-.107-.522-.293-.708A1.007 1.007 0 0 0 20.5 5h-5.586l2.293-2.293-1.414-1.414L12.086 5h-.172L8.207 1.293 6.793 2.707 9.086 5H3.5c-.263 0-.52.107-.707.293A1.007 1.007 0 0 0 2.5 6v14c0 .263.107.521.293.707.186.186.444.293.707.293h10.33l-1.79-2H4.5Z"/><path d="M16.5 18.5c-.63 0-1.184.297-1.55.752l1.55 1.733 1.551-1.733a1.988 1.988 0 0 0-1.55-.752ZM16.5 14.68a5.803 5.803 0 0 0-4.116 1.705l1.343 1.5c.026-.027.045-.06.072-.086a3.804 3.804 0 0 1 2.701-1.12c1.058.001 2.007.427 2.701 1.12.027.026.046.06.072.087l1.343-1.501A5.803 5.803 0 0 0 16.5 14.68Z"/><path d="m21.828 15.03 1.332-1.489a9.6 9.6 0 0 0-6.66-2.68 9.6 9.6 0 0 0-6.66 2.68l1.332 1.489a7.606 7.606 0 0 1 5.328-2.17c2.077 0 3.948.828 5.328 2.17Z"/></g><defs><clipPath id="a"><path fill="#fff" d="M0 0h24v24H0z"/></clipPath></defs></svg>
